public/logo.svg

<svg width="192" height="30" viewBox="0 0 192 30" fill="none" xmlns="http://www.w3.org/2000/svg">
<path d="M6.36039 15.9578C6.52689 14.0876 7.72571 13.1872 9.99014 13.1872C13.0538 13.1872 13.6199 13.8798 13.6199 16.9621V19.5942C13.6199 22.6418 13.0538 23.3345 9.99014 23.3345C7.75901 23.3345 6.56019 22.6418 6.36039 21.2912V15.9578ZM0 0.927246V28.6332H6.16059V23.6462C6.8266 27.2479 8.99113 29.0488 12.6875 29.0488C18.8814 29.0488 20.28 27.4904 20.28 19.7327V16.7543C20.28 8.99662 18.9147 7.43816 13.0205 7.43816C9.02443 7.43816 7.093 8.37323 6.32709 11.5941V0.927246H0Z" fill="#FAFAFA"/>
<path d="M29.0899 22.7107C29.0899 21.3947 29.4229 21.1523 31.1545 21.1523L36.3827 21.1176V22.0181C36.3827 23.6804 35.3504 24.3038 32.5199 24.3731H32.1868C29.5894 24.3731 29.0899 24.096 29.0899 22.7107ZM33.8852 7.43781H32.3533C24.561 7.43781 23.0958 8.54605 23.0958 14.2604V15.0916H29.4229C29.3563 12.7019 29.9224 12.2864 33.0527 12.2864C35.8499 12.2864 36.3827 12.7019 36.3827 15.0916V16.2691L30.0556 16.3037C23.6286 16.3037 22.4298 17.3081 22.4298 22.6415C22.4298 28.2173 23.6286 29.2563 30.1555 29.0485C33.2858 29.0138 35.5169 27.7324 36.3827 24.9618V28.6329H42.7098V14.6414C42.7098 8.58068 41.3112 7.43781 33.8852 7.43781Z" fill="#FAFAFA"/>
<path d="M50.8412 22.122V21.6718H44.8471V22.122C44.8471 27.9402 46.2457 29.0485 53.5718 29.0485H55.1037C63.4954 29.0485 65.0272 28.0788 65.0272 23.0917C65.0272 19.8709 64.2613 18.0007 61.0644 17.031C59.3661 16.5115 57.8343 16.0959 54.5708 15.5418C52.4063 15.1955 51.8069 14.7799 51.8069 13.9141C51.8069 12.6327 52.4729 12.2864 54.9371 12.2864C57.5013 12.2864 58.2006 12.7712 58.2006 14.4682V15.0916H64.5277V14.4682C64.5277 8.54604 63.1291 7.43781 55.7031 7.43781H54.1712C46.5787 7.43781 45.1468 8.40751 45.1468 13.7063C45.1468 16.4769 45.8461 18.0353 48.5768 19.109C50.5748 19.9055 53.6051 20.3904 54.7706 20.6328C57.7011 21.1869 58.4004 21.741 58.4004 22.6068C58.4004 23.8536 57.6345 24.1999 54.7706 24.1999C51.6737 24.1999 50.8412 23.7497 50.8412 22.122Z" fill="#FAFAFA"/>
<path d="M73.6021 15.6111V15.5072C73.6021 12.8058 74.2015 12.2864 77.465 12.2864C80.5619 12.2864 81.2279 12.8058 81.2612 15.6111H73.6021ZM87.7548 22.0181H81.0947C81.0947 23.819 80.5286 24.1999 77.465 24.1999C74.2015 24.1999 73.6021 23.6112 73.6021 20.5635V20.4596H87.9213V17.2734V17.2388C87.9213 8.99627 86.3895 7.43781 78.1976 7.43781H76.6658C68.4738 7.43781 66.942 9.1348 66.942 18.2431C66.942 27.3515 68.4738 29.0485 76.6658 29.0485H78.1976C86.2563 29.0485 87.7548 27.9402 87.7548 22.0181Z" fill="#FAFAFA"/>
<path d="M90.7247 7.8534V28.6329H97.0518V16.6154C97.0518 14.1911 98.1507 12.979 100.349 12.979C102.913 12.979 103.379 13.4985 103.379 16.1998V28.6329H109.673L109.639 16.4076C109.706 14.1219 110.805 12.979 112.936 12.979C115.467 12.979 115.933 13.4985 115.933 16.1998V28.6329H122.227L122.194 15.1955C122.194 8.68458 121.061 7.43781 114.967 7.43781C111.604 7.43781 109.573 8.96164 108.84 12.2517C108.574 8.30362 107.475 7.43781 102.446 7.43781C99.4494 7.43781 97.7511 8.71921 97.0518 11.8361V7.8534H90.7247Z" fill="#FAFAFA"/>
<path d="M131.343 15.6111V15.5072C131.343 12.8058 131.942 12.2864 135.206 12.2864C138.303 12.2864 138.969 12.8058 139.002 15.6111H131.343ZM145.495 22.0181H138.835C138.835 23.819 138.269 24.1999 135.206 24.1999C131.942 24.1999 131.343 23.6112 131.343 20.5635V20.4596H145.662V17.2734V17.2388C145.662 8.99627 144.13 7.43781 135.938 7.43781H134.406C126.214 7.43781 124.683 9.1348 124.683 18.2431C124.683 27.3515 126.214 29.0485 134.406 29.0485H135.938C143.997 29.0485 145.495 27.9402 145.495 22.0181Z" fill="#FAFAFA"/>
<path d="M148.395 7.8534V28.6329H154.722V16.2691C154.756 14.0526 155.921 12.979 158.219 12.979C161.149 12.979 161.682 13.5678 161.682 16.7539V28.6329H168.009L167.976 15.1955C167.976 8.68458 166.877 7.43781 161.083 7.43781C157.453 7.43781 155.488 8.71921 154.722 12.0786V7.8534H148.395Z" fill="#FAFAFA"/>
<path d="M183.938 22.7455H180.241C178.31 22.7455 177.944 22.3991 177.944 20.6329V13.3947H183.605V7.85349H177.944V3.42053H171.95V7.85349H169.619V13.3947H171.617V21.6372C171.617 27.5248 172.915 28.633 179.609 28.633H183.938V22.7455Z" fill="#FAFAFA"/>
<path d="M192 22.7455H186.339V28.633H192V22.7455Z" fill="#FAFAFA"/>
</svg>

<svg xmlns="http://www.w3.org/2000/svg" width="192" height="30" fill="#fafafa" xmlns:v="https://vecta.io/nano"><path d="M6.36 15.958c.167-1.87 1.365-2.771 3.63-2.771 3.064 0 3.63.693 3.63 3.775v2.632c0 3.048-.566 3.74-3.63 3.74-2.231 0-3.43-.693-3.63-2.043v-5.333zM0 .927v27.706h6.161v-4.987c.666 3.602 2.831 5.403 6.527 5.403 6.194 0 7.593-1.558 7.593-9.316v-2.978c0-7.758-1.365-9.316-7.26-9.316-3.996 0-5.927.935-6.693 4.156V.927H0zm29.09 21.784c0-1.316.333-1.558 2.065-1.558l5.228-.035v.901c0 1.662-1.032 2.286-3.863 2.355h-.333c-2.597 0-3.097-.277-3.097-1.662zm4.795-15.273h-1.532c-7.792 0-9.257 1.108-9.257 6.823v.831h6.327c-.067-2.39.5-2.805 3.63-2.805 2.797 0 3.33.415 3.33 2.805v1.178l-6.327.035c-6.427 0-7.626 1.004-7.626 6.338 0 5.576 1.199 6.615 7.726 6.407 3.13-.035 5.361-1.316 6.227-4.087v3.671h6.327V14.641c0-6.061-1.399-7.204-8.825-7.204zm16.956 14.684v-.45h-5.994v.45c0 5.818 1.399 6.927 8.725 6.927h1.532c8.392 0 9.923-.97 9.923-5.957 0-3.221-.766-5.091-3.963-6.061-1.698-.519-3.23-.935-6.494-1.489-2.164-.346-2.764-.762-2.764-1.628 0-1.281.666-1.628 3.13-1.628 2.564 0 3.264.485 3.264 2.182v.623h6.327v-.623c0-5.922-1.399-7.03-8.825-7.03H54.17c-7.593 0-9.024.97-9.024 6.268 0 2.771.699 4.329 3.43 5.403 1.998.796 5.028 1.281 6.194 1.524 2.93.554 3.63 1.108 3.63 1.974 0 1.247-.766 1.593-3.63 1.593-3.097 0-3.929-.45-3.929-2.078zm22.761-6.511v-.104c0-2.701.599-3.221 3.863-3.221 3.097 0 3.763.519 3.796 3.325h-7.659zm14.153 6.407h-6.66c0 1.801-.566 2.182-3.63 2.182-3.264 0-3.863-.589-3.863-3.636v-.104h14.319v-3.186-.035c0-8.243-1.532-9.801-9.724-9.801h-1.532c-8.192 0-9.724 1.697-9.724 10.805s1.532 10.805 9.724 10.805h1.532c8.059 0 9.557-1.108 9.557-7.03zm2.97-14.165v20.78h6.327V16.615c0-2.424 1.099-3.636 3.297-3.636 2.564 0 3.03.52 3.03 3.221v12.433h6.294l-.034-12.225c.067-2.286 1.166-3.429 3.297-3.429 2.531 0 2.997.52 2.997 3.221v12.433h6.294l-.033-13.437c0-6.511-1.133-7.758-7.227-7.758-3.363 0-5.394 1.524-6.127 4.814-.266-3.948-1.365-4.814-6.394-4.814-2.997 0-4.695 1.281-5.394 4.398V7.853h-6.327zm40.618 7.758v-.104c0-2.701.599-3.221 3.863-3.221 3.097 0 3.763.519 3.796 3.325h-7.659zm14.152 6.407h-6.66c0 1.801-.566 2.182-3.629 2.182-3.264 0-3.863-.589-3.863-3.636v-.104h14.319v-3.186-.035c0-8.243-1.532-9.801-9.724-9.801h-1.532c-8.192 0-9.723 1.697-9.723 10.805s1.531 10.805 9.723 10.805h1.532c8.059 0 9.557-1.108 9.557-7.03zm2.9-14.165v20.78h6.327V16.269c.034-2.217 1.199-3.29 3.497-3.29 2.93 0 3.463.589 3.463 3.775v11.879h6.327l-.033-13.437c0-6.511-1.099-7.758-6.893-7.758-3.63 0-5.595 1.281-6.361 4.641V7.853h-6.327zm35.543 14.893h-3.697c-1.931 0-2.297-.346-2.297-2.113v-7.238h5.661V7.853h-5.661V3.421h-5.994v4.433h-2.331v5.541h1.998v8.243c0 5.888 1.298 6.996 7.992 6.996h4.329v-5.887zm8.062 0h-5.661v5.887H192v-5.887z"/></svg>
